app/src/assets/icons/website/document.svg

<svg height="512" viewBox="0 0 24 24" width="512" xmlns="http://www.w3.org/2000/svg"><path d="m21 4a1 1 0 0 0 -1-1h-3v-1a1 1 0 0 0 -1-1h-8a1 1 0 0 0 -1 1v1h-3a1 1 0 0 0 -1 1v18a1 1 0 0 0 1 1h16a1 1 0 0 0 1-1zm-12-1h6v2h-6zm10 18h-14v-16h2v1a1 1 0 0 0 1 1h8a1 1 0 0 0 1-1v-1h2z"/><path d="m12 17h-4a1 1 0 0 0 0 2h4a1 1 0 0 0 0-2z"/><path d="m16 13h-8a1 1 0 0 0 0 2h8a1 1 0 0 0 0-2z"/><path d="m16 9h-8a1 1 0 0 0 0 2h8a1 1 0 0 0 0-2z"/></svg>

<svg height="512" viewBox="0 0 24 24" width="512" xmlns="http://www.w3.org/2000/svg"><path d="M21 4a1 1 0 00-1-1h-3V2a1 1 0 00-1-1H8a1 1 0 00-1 1v1H4a1 1 0 00-1 1v18a1 1 0 001 1h16a1 1 0 001-1zM9 3h6v2H9zm10 18H5V5h2v1a1 1 0 001 1h8a1 1 0 001-1V5h2z"/><path d="M12 17H8a1 1 0 000 2h4a1 1 0 000-2zM16 13H8a1 1 0 000 2h8a1 1 0 000-2zM16 9H8a1 1 0 000 2h8a1 1 0 000-2z"/></svg>
